/* XPM */
static char * east_xpm[] = {
"64 64 73 1",
" 	c #8A40A5",
".	c #793791",
"+	c #843D9D",
"@	c #73348A",
"#	c #5A276D",
"$	c #431C52",
"%	c #371543",
"&	c #32133D",
"*	c #642C78",
"=	c #652D79",
"-	c #5C286F",
";	c #532464",
">	c #4A1F59",
",	c #3C1849",
"'	c #2C1037",
")	c #220B2A",
"!	c #120418",
"~	c #000000",
"{	c #6A2F7F",
"]	c #3E194B",
"^	c #572669",
"/	c #5F2A72",
"(	c #7E3A96",
"_	c #3D194B",
":	c #15051B",
"<	c #2E1139",
"[	c #290E32",
"}	c #6E3284",
"|	c #78378F",
"1	c #2A0F34",
"2	c #08020C",
"3	c #100315",
"4	c #260C2F",
"5	c #4C205C",
"6	c #0A020E",
"7	c #230B2C",
"8	c #110416",
"9	c #3F194C",
"0	c #843D9E",
"a	c #421B50",
"b	c #411B50",
"c	c #31123C",
"d	c #16051C",
"e	c #0D0312",
"f	c #2B0F35",
"g	c #5B286C",
"h	c #491F58",
"i	c #0E0314",
"j	c #190620",
"k	c #381644",
"l	c #18061F",
"m	c #351440",
"n	c #100416",
"o	c #250D2F",
"p	c #642D77",
"q	c #7C3994",
"r	c #461D55",
"s	c #1D0825",
"t	c #260D2F",
"u	c #5B286E",
"v	c #502261",
"w	c #481E57",
"x	c #3A1747",
"y	c #4E215E",
"z	c #6D3182",
"A	c #512362",
"B	c #1E0825",
"C	c #210A2A",
"D	c #0A020F",
"E	c #682E7C",
"F	c #401A4E",
"G	c #210A29",
"H	c #58266A",
"                                                                ",
"                                                                ",
"                                                                ",
"                                                                ",
"                                                                ",
"                                                                ",
"                                                                ",
"                                                                ",
"                                                                ",
"                                                                ",
"                                                                ",
"                                                                ",
"                                                                ",
"                                                                ",
"                                                                ",
"                                           ...                  ",
"     ||||||||||||                      +@#$%&*                  ",
"                                +@=-;>,%')!~&*                  ",
"                         .{;>,%&&')))!!~!)']^.                  ",
"                 +**/{-;$%))!!~~~!)))''%$#@+                    ",
"                 (_:<[))!~))''&&%$;-=}(+                        ",
"                 |1234))']5=}(+                                 ",
"                 |167;-=@+                                      ",
"                 |'890                                          ",
"                 |'!a                                           ",
"                 |'!a                                           ",
"                 |'!a                                           ",
"                 |'!a                                           ",
"                 |'!a                                           ",
"                 |'!a                                           ",
"                 ('!,        +++.-b5*                           ",
"                 +&~%    +@=;$c&&de~*                           ",
"                  %~fgh%&&'))!!~~de&*                           ",
"                  ,ijkl~~~!))c%%]b-{                            ",
"                  aijm%&&%$;=@+                                 ",
"                  anopq+                                        ",
"                  a!'|                                          ",
"                  a!'|                                          ",
"                  a!'|                                          ",
"                  a!'|                                          ",
"                  a!'|                                          ",
"                  a!'|                                          ",
"                  a!'|                                          ",
"                  a!'|                                          ",
"                  a!'|                                          ",
"                  a!'|               +++                        ",
"                  a!'|          +++./$r*                        ",
"                  a!'|     +@=-;$c&&)!s*                        ",
"                  a!tu---vwxc)))!!~~)cyz                        ",
"                  A!BC)))deD!)))c%%];@+                         ",
"                  EF!7)))deG$;-=@+                              ",
"                  +*^;---vH=+                                   ",
"                                                                ",
"                                                                ",
"                                                                ",
"                                                                ",
"                                                                ",
"                                                                ",
"                                                                ",
"                                                                ",
"                                                                ",
"                                                                ",
"                                                                ",
"                                                                "};
