/* XPM */
static char *_dda072d9ae9453698c836803b064f21LeGUU9pnDiBuFmth[] = {
/* columns rows colors chars-per-pixel */
"64 64 225 2 ",
"   c #030202",
".  c #0A0604",
"X  c #0B0806",
"o  c #080708",
"O  c #0D0C0B",
"+  c #160B06",
"@  c #120E0B",
"#  c #14110E",
"$  c #1C130D",
"%  c #0F0E1A",
"&  c #151412",
"*  c #1A1512",
"=  c #1C1914",
"-  c #18171A",
";  c #1D1B1A",
":  c #22170D",
">  c #231C15",
",  c #2A1C13",
"<  c #221D1B",
"1  c #2A1E1A",
"2  c #242216",
"3  c #25211D",
"4  c #2D2619",
"5  c #2B241C",
"6  c #34251C",
"7  c #34291E",
"8  c #1D1D24",
"9  c #211F24",
"0  c #1F2020",
"q  c #262423",
"w  c #2B2624",
"e  c #2E2A22",
"r  c #28262F",
"t  c #2D2B2A",
"y  c #322721",
"u  c #332C23",
"i  c #392C24",
"p  c #322E2B",
"a  c #3C3226",
"s  c #35322C",
"d  c #3A322A",
"f  c #38352A",
"g  c #3A2D30",
"h  c #3C3533",
"j  c #383737",
"k  c #3D3B33",
"l  c #42352B",
"z  c #453B2C",
"x  c #4A3B2E",
"c  c #433B33",
"v  c #433835",
"b  c #4A3E34",
"n  c #423E3B",
"m  c #523F35",
"M  c #49422F",
"N  c #464035",
"B  c #45413B",
"V  c #4C433B",
"C  c #4C493B",
"Z  c #544637",
"A  c #51463E",
"S  c #534B3C",
"D  c #383841",
"F  c #413E4A",
"G  c #3E4342",
"H  c #4B4441",
"J  c #484647",
"K  c #4D4A44",
"L  c #534B43",
"P  c #5B4E45",
"I  c #564B48",
"U  c #514C4B",
"Y  c #585145",
"T  c #55524C",
"R  c #5B534C",
"E  c #5E594C",
"W  c #4E4D50",
"Q  c #534D53",
"!  c #5B5553",
"~  c #5E5A51",
"^  c #5A575A",
"/  c #62554A",
"(  c #655A4D",
")  c #6A5B4D",
"_  c #635C53",
"`  c #675B57",
"'  c #6C5D54",
"]  c #645C5B",
"[  c #725F54",
"{  c #6C6455",
"}  c #65625A",
"|  c #68655B",
" . c #6C635C",
".. c #71635B",
"X. c #746A5C",
"o. c #796B5E",
"O. c #5A5A60",
"+. c #656561",
"@. c #6C6664",
"#. c #6E6A63",
"$. c #6A676D",
"%. c #736665",
"&. c #736B64",
"*. c #7B6C64",
"=. c #736D6C",
"-. c #796E6B",
";. c #6F7166",
":. c #767164",
">. c #7C7365",
",. c #77726C",
"<. c #7C736C",
"1. c #7F796E",
"2. c #6E6C74",
"3. c #736E72",
"4. c #747272",
"5. c #7A7473",
"6. c #7D7A75",
"7. c #747278",
"8. c #7A7579",
"9. c #7D7A7C",
"0. c #81736C",
"q. c #877869",
"w. c #827A6D",
"e. c #807672",
"r. c #837C74",
"t. c #8B7973",
"y. c #847C7B",
"u. c #8D7F7B",
"i. c #917F76",
"p. c #8C836D",
"a. c #8A8274",
"s. c #86817B",
"d. c #8B8579",
"f. c #8B837C",
"g. c #92857C",
"h. c #95887A",
"j. c #7E7A81",
"k. c #827D82",
"l. c #8C7F80",
"z. c #7D8280",
"x. c #848283",
"c. c #8B8482",
"v. c #8E8984",
"b. c #858188",
"n. c #8A8589",
"m. c #8D8A8B",
"M. c #938682",
"N. c #938A83",
"B. c #9A8D84",
"V. c #9A8D87",
"C. c #938D8C",
"Z. c #9A9387",
"A. c #94918C",
"S. c #9B938D",
"D. c #8E8A91",
"F. c #918E90",
"G. c #949393",
"H. c #9B9592",
"J. c #9D9A95",
"K. c #989599",
"L. c #9D9C9B",
"P. c #A3958C",
"I. c #A9968B",
"U. c #A29792",
"Y. c #A39B94",
"T. c #AA9C93",
"R. c #A39D9A",
"E. c #AA9E9B",
"W. c #A4A096",
"Q. c #A4A19C",
"!. c #ACA79B",
"~. c #ABA39C",
"^. c #B7A89C",
"/. c #A39EA3",
"(. c #A6A3A2",
"). c #AAA5A3",
"_. c #ADA9A5",
"`. c #A6A7A8",
"'. c #ABA6A9",
"]. c #ADABAB",
"[. c #B7AAA3",
"{. c #B1ABA4",
"}. c #B2ADAB",
"|. c #BDB0A2",
" X c #B4B1AD",
".X c #BAB2AD",
"XX c #B4AEB1",
"oX c #B5B3B3",
"OX c #BBB5B3",
"+X c #BCB9B5",
"@X c #BBB6B8",
"#X c #BDBBBB",
"$X c #C2B8AB",
"%X c #C2B7B0",
"&X c #C2BBB4",
"*X c #C3BDBA",
"=X c #CCC1B5",
"-X c #C4C1BC",
";X c #CAC3BD",
":X c #D1C2B7",
">X c #BDBCC0",
",X c #C3BEC2",
"<X c #C5C2C3",
"1X c #CBC6C4",
"2X c #CCC9C3",
"3X c #CBC7C9",
"4X c #CECBCD",
"5X c #D3CCC5",
"6X c #D2CECC",
"7X c #D5D1CD",
"8X c #DBD5CD",
"9X c #CFCED0",
"0X c #D4D2D2",
"qX c #DAD6D3",
"wX c #DDD9D6",
"eX c #D7D5DA",
"rX c #DDDCDB",
"tX c #E1DDDC",
"yX c #E0DFE2",
"uX c #E4E3E3",
"iX c #EAE6E4",
"pX c #ECEAEB",
"aX c #F0EFEF",
"sX c #F5F4F5",
"dX c #FAFAFA",
/* pixels */
"*X/.j.$.2./.uXdXsXuX*XR.;X;XI.I.$X5X_.4XuXoX^ 9 o     O D 9 o X s c J ].3XN.d O q f.].'.eXsXuX`.c.S.f./ * & E ( w..XwX7X-X2X7X3X",
"&XR.$.3.G.>XyXuX0X<X'.C.}.&XT.^.:X8X;XqXtX1X'.k.q o   o - r & # & e ^ '.&XY.E > = ' S./.0XuX0XL.8.=.0.0.v ; E ' K J.wX7X-X}.Q.(.",
"oX'.j.k.F.].#X*XoXC.=.-.H.&X[.^.^.=X;X*X}.~.;X{.R = # = j $.^ G j j $.L.Y.s.N # # P B.Y.<X9X+X'.G.=.<.f.R ; B X.=.OX0X#XL.k.2.b.",
"].}.H.v.,.6.s.Z.S.4.3.H.OX;X%Xg.g.^..X~.S.T.!.r.f 5 c a | L.'.].m.U B | } T u # * B d.H.#X<XOX*X X6.r.Y.%.1 > C #.m. X].G.x.9.G.",
";X.XS.w.Y e f >.S.y.(.<X1X+X Xf.P.Y.S.P.Z.h.} 3 # > f C | Y.&X3X).K 2 2 p ! B @ & K <.C.oX,X3XwX;Xf.r.J.s.c 4 4 d b r.S.N.K.}.;X",
"5X$Xg.Z = @ p @.A._.<X2X+XH.R.H.W.A.0.g.T.B.v O = c E _ R r.Y.N.~ ; X @ e _ C @ O h @.K.>X0XuXiX5XY.f.f.g. ._ T S C L :.N.].3X8X",
"rX3XR.l : > U k.'.#X+X}.L.n.`.'.A.+.T >.B.Y.,.t 2 N C H p N E d = @ = f Y | C = = R k.'.#XqXiXiXqXOXH.v.N.S.}.oXW.5.^ 5.H.#XuXpX",
"sXpX,XI 1 q U x.XX#X].m.4.x.oX].J.` c ) e.H.OX3.p = 2 u > # > O * c E X.:.E u p Q c.'.}.Y.R._.7XwX-XQ.A.C.E.6XwX+XG.k.C.~.<XuXdX",
"dXaX3X` y B =.H.}.oXK.7.@.4.G.G.Y.N./ ) -.R.7XXXQ # O = ; # = 3 L :.w.>.{ u p 3.XX;X.XY.d.&.} _.4XoXL.L.L.}.<X1X#XXX_.E.Y.oX0XsX",
"pXrX&X>.d R 6.v.G.H.m.n.8.@.7.x.H.~.h.w.,.A.;X;X9.t p k s n T s.R.H.s.E b h ,.OX7X;XQ.r. .&.M.XX#X'.(.].@XoX].*X<X<X+XY.y.C.,XuX",
"3X1X.XB.P ' N.c.r.s.C.C.5.@.L./.C.S.Y.S.r.<.R..X'.8.^ U U @.6.(.<X#XH._  .N.Y.H.Y.S.<._ r.).OX@X}.Y.C.R.+XOXR.)..X#X<X].4.=.'.&X",
"M.E.{.{.B.g.N.c.N.S.f.( h ] &XXX5.e.W..XS._ 1.Y.}.'.K.x.j.k.D./.OX XB.f.N.Y.B.e.-.,.r.S.OX1X*XOXT.*.P I r.).H.M.S.}.2X<XH.=.y.l.",
"0.M.S.{.~.f.v.C.H.S.#.u = b H.C.%...U.*XOXr.E r.Y.#X>XoX@X>X9XeX<X).~.T.Y.h.0.' ) w.S..X*XOX).S.a.S u > u } =.@.4.J.OX1X}.c.-.*.",
"g.0.0.B.~.c.c.u.<. .c = i R r.r.%._ M.OX1XQ.` &.R.0X0X,X,X6XuXsXpX4X*XOX).c.} V ( h.Y.W.P.g...S { ( P i * ; f T 4.6.v.{.{.P.u.g.",
"S.&. .s.{.f.&.( V y = = c ( / y < i ..~.*XOXc.] _.uXuX3XOX+X0XuXpXtX;XOXQ.J.A.s.S.~.S.5._ V 6 , a / >.R s O # k +.} #.a.P.T.I.~.",
"u.` ,.H.}.c. .n 3 @ $ a _ { a X   : z S.OX@XXX].7XiXiXwX*X`.L.`.&X*X.XH.s.N.R.].Q.H.C.%.g @ .   X y <. .v & > K @.r.f.N.B.T.^.T.",
"P.%.,.C.c.r.#.h = = , x ( L 7 .   + 4 >.T.}.#X4XwXqX5X-X XG.8.8.y.c.v.6.5.C.'.].K.x./.XX3.= . . . 1 @.R 5 e I s.Y.Q.~.Y.0.i.^.|.",
"~. .%.,.,.,.<.B 5 d d d A b d + . + : z *.Y.'.oX-XOXS.r.s.5.e.u.<.6.R..X).H.Q.].G.7.L.#Xy.3 = > 6 v V p 2 d ~ S. X}.Y.B.a.a.^.&X",
"y.U ] &. .w.N._ A L d i c 6 , + $ 5 7 d _ C.(.L.R.S.c.v.R.Q..X;X&X.X.X!.f.} T ~ +.+.@. .V u c c b b i 1 a L _ s.s.X.#.&.B.{.{.Q.",
"oX=.5.&._ g.Y.r.>.S 4 i c > + $ V n d U 5.(.'.G.n.C.].<X6X0XwX8X-XW.:.C 5 & O & t J ^ V T h i d V V c c A E E L s B Y  .d.+X7X4X",
"4XK.C.a.&.g.N.>.X.b : d A i $ * V v = B c.#X@XK.y.D.<XuXpXwX-XW.;.k 2 O     X # O O ; k U ; @ , i i y u s 5 = > a E <.r.N.}.tXpX",
"OXH.B.B.r.0.*.' o.A : y E L h h ! n ; R Q.OXoX}.E.'.eXuX0XK.T q & o     O q k t X     O ; o   + $ 5 > $ # # * 7 z / >.a.T.~.3X0X",
"y.' / #.6.R S z b V > a ` ` @.5.] h < _ S.R.}.<X6X<X0X-Xx.t O       o < R r.5.k X   o           & h a 7 l V V l i d e _ !.;XoXH.",
"3 # & j J t & O # l a M R s.J.J.=.H < P u.).&X*XwX<XQ.9.J 0 & ; ; = q %.B.) q O X ; 8 %       o 9 w 6 x ) X.b # X X X 3 r.{.m.T ",
"      X O O     X i x a e s.OX].=.s * c 0.!..XR. XQ.| Q 4.z.4.6.r.` L p.p.S & o w $.$.D - X   o 3 N P ' [ ) i .     @ @ s R w @ ",
"        o < = # @ d S 7 =  .}.E.=.k > > ( h.Y.f.c.A.F.K.`.<X}.{.M.x e >.Y.G.F ; @.'./.k.3.n = ; c X.B.S.h.X.i O   o = $ 5 =     ",
"    X @ O s ! R 4 5 _ a w 5.Q.S.u.} f * Z q.!.R.m.'.].).OX0XwX6XH.3 @ S v.'.j.j m.6XqX<X].6.%.-.' ) N.B.g.<.I p = . X = k @     ",
"          & K :.{ z N u J K.(.N.g.{ 5 X , ) B.E.J.).J.~.].+X6X&XS.;   < &.J.K.Q k.<XuXuX3X_.).).r.! s.#.] &.5.Q t X X 5 *       ",
"          X f X.>.P c H =._. XR.B...>   . 6 [ P.~.Y.N.N.C.G.*X&XQ.q   * X.S.R.n.y.(.wXpX0X).r.u.y.] @.] n N T j = o X > O       ",
"O o X @ O   = E w.s.C.9.8.).&X.XY.%.i .   + m P.[.!.Y.N.7.4._.2XoXW q v >.T.OX4X4X<X1XtX0XE.` v H ] ! T u # & X o   # e &     X ",
"h > 3 H K ; @ c :.H.#X}.K.<XqX*XU.t.P @   . i h.|.$X%X{.k.7._.7X5XE.H.H.R.[.3XpXaXrX6XqXwX.X-.R ' ] K ^ k O           & w X X 5 ",
"k u t n.).~ = * T R.<XOX<XpXiX&XU.T.<.5 . @ V >.!.=X5X5X+X#X6X7X6X*X XG.s.E.0XsXdXpX7X;XqX1XM.t.P.~.x.XX'.n @         & O.8 O e ",
"s c J ].3XN.d O q f.].'.eXsXuX`.c.S.f./ * * E ( w..XwX7X-X2X7X3X*X/.j.$.2./.uXdXsXuX*XR.;X;XI.I.$X5X_.4XuXoX^ 9 o     O D 9 o X ",
"& e ^ '.&XY.E > = ' S./.0XuX0XL.8.=.0.0.v ; E ' K J.qX7X-X}.Q.(.&XR.$.3.G.>XyXuX0X<X'.C.}.&XT.^.:X8X;XqXtX<X'.k.q o   o - r & # ",
"j j $.L.Y.s.N # # P B.Y.<X9X+X'.G.=.<.f.R ; B X.=.OX0X#XL.k.2.b.oX'.j.k.G.].#X*XoXC.=.-.H.&X[.^.^.=X;X-X}.~.;X{.R = # = j $.^ G ",
"m.U B } } T u # * B f.S.#X<XOX*X X6.r.Y.%.1 > C @.m.}.].G.x.9.G.].].H.v.,.6.s.Z.S.4.3.H.OX;X%Xg.g.^..X~.P.T.!.r.f 5 c a | L.'.].",
").K 2 2 p ! B # & K <.C.oX,X3XwX;Xf.r.J.s.c 4 4 d b r.S.N.K.}.;X;X.XS.w.Y e f >.S.y.(.<X1X+X.Xf.P.Y.S.P.Z.h.} 3 # > f C | Y.&X3X",
"~ ; X @ e _ C @ O h @.K.>X0XuXiX5XY.f.f.g. ._ T S C L :.N.].3X8X5X$Xg.Z = @ p @.A._.<X2X+XH.R.H.W.A.<.g.T.B.v O = c E _ R r.Y.N.",
"= @ = f Y | C = = R k.'.#XqXiXiXqXOXH.v.N.S.}.oXW.5.^ 5.H.#XuXpXrX3XR.l : > U k.'.#X+X}.L.n.`.).A.+.T >.B.Y.,.t 2 N C H p N E d ",
"* c E X.:.E u p Q c.'.}.Y.R._.7XwX-XQ.A.C.E.6XwX+XG.k.C.~.<XuXdXsXpX,XI 1 q U x.XX#X].m.,.x.oX].J.` v ' e.H.OX3.p = 2 u > # > O ",
"L :.w.>.{ u p 3.XX;X.XY.d.&.} _.4XoXL.L.L.}.<X1X#XXX_.E.Y.OX0XsXdXaX3X` y B =.H.}.oXK.7.@.4.G.G.Y.N./ ) -.R.7XXXQ # O = ; # = 3 ",
"R.H.s.E b h ,.OX7X;XR.r. .&.v.XX#X'.(.].@XoX].*X<X<X+XY.y.C.,XuXpXrX&X>.d R 6.v.G.H.m.n.8.@.7.x.H.~.h.w.,.A.;X;X9.t p k s n T s.",
"<X#XH._  .N.Y.H.Y.S.<._ r.).OX@X}.Y.C.R.+XOXR.)..X#X<X].4.=.'.&X3X1X.XB.P ' N.c.r.s.C.C.5.@.L./.C.S.Y.S.r.<.R..X'.8.^ U U @.6.(.",
"OX XS.f.N.Y.B.e.-.,.r.S.OX1X*XOXT.*.P I r.).H.M.S.}.2X<XH.=.y.l.M.E.{.{.B.g.N.c.N.S.f._ h ] &XXX5.e.T..XS._ 1.Y.}.'.K.x.j.j.D./.",
"<X).~.T.Y.h.0.' ) w.S..X*XOX).S.a.S u > u } =.@.4.J.OX1X}.c.-.*.0.M.S.{.~.f.v.C.H.S.#.u = b H.C.%...U.*XOXr.E r.R.#X>XoX@X>X9XeX",
"pX4X*XOX).c.} V ( h.Y.W.P.g...S { ( P i * ; f T 4.6.v.{.{.P.u.g.g.0.0.B.~.c.c.u.<. .c = i R r.r.%._ M.OX1XQ.` &.R.0X0X,X,X6XuXsX",
"pXtX;XOX(.J.A.f.S.~.S.5._ V 6 , a / >.R s O # k +.} #.a.P.T.I.!.S.&. .s._.f.&.( V y = = c ( / y < i ..~.*XOXc.] _.uXuX3XOX+X0XuX",
"&X*X.XH.s.N.R.].Q.H.C.%.g @ .   X y <. .v & > K @.r.f.N.B.T.^.T.u.' ,.H.}.c. .n 3 @ $ a _  .a X   : z S.OX@XXX].7XiXiXwX*X`.L.`.",
"y.c.v.6.5.C.'.].K.x./.XX3.= . . . 1 @.R 5 e I s.Y.Q.~.Y.0.i.^.|.P.%.,.C.c.r.#.h = = , x ( L 7 .   + 4 >.T.}.#X4XwXqX5X-X XG.8.8.",
"<.6.R..X).H.Q.].G.7.L.&Xy.3 = > 6 v V p 2 d ~ S. X}.Y.B.a.a.^.&X~. .%.,.,.,.<.B 5 d d d A b d + . + : z *.Y.'.oX-XOXS.r.s.5.e.u.",
"&X.X.X!.f.} T ~ +.+.@.@.V u c c b b y 1 a L _ s.s.#.#.&.B.{.{.Q.y.U ] &. .w.N._ A L d i c 6 , + * 5 7 d _ C.(.L.R.S.c.m.R.Q..X;X",
"-XW.:.V 5 & O & t J ^ V T h i d V V c c A E E L s B Y  .d.+X7X4XoX=.5.&._ d.Y.r.>.S 4 i c > + $ V B d T 5.(.'.G.n.C.].<X6X0XwX8X",
";.k 2 O     X # O O ; k U ; @ , i i y u s 5 = > a E <.r.N.}.tXpX4XK.C.a.X.g.N.>.X.b : d A i $ * H v = B c.#X@XK.y.D.<XuXpXwX-XW.",
"& o   o O q k t X     O ; o   + $ 5 > $ # # * 7 z / >.a.T.~.3X0XOXH.B.B.r.0.*.[ o.A : y E L h h ! n ; R Q.OXoX}.E.'.eXuX0XK.T q ",
"    o < R r.5.k X   o           & h a 7 l V V l i d e _ !.;XoXH.y.' / #.6.R S z b V > a ` ` @.5.] h < _ S.R.}.<X6X<X0X-Xx.t O   ",
"; & q %.B.) q O X ; 8 %       o 9 w 6 x ) X.b # X X X 3 r.{.m.T 3 # & j J t & O # l a M R s.J.J.=.H < P u.).&X*XwX<XQ.9.J 0 & ; ",
"r.` L p.p.S & o w $.$.D - X   o 3 N P ' [ ) i .     @ @ s R w O       X O O     X i x a e s.OX].=.s * c *.!..XR. X~.| Q 4.z.4.6.",
"M.x e >.Y.G.F ; @.'./.k.3.n = ; c X.B.S.h.X.i O   o = $ 5 =             . < = # @ d S 7 =  .}.E.=.k > > ( h.U.s.c.A.F.K.`.<X}.{.",
"H.3 @ S v.'.j.j m.6XqX<X].6.%.-.' ( N.B.g.<.I p = . X = k @         X @ O s ! R 4 5 _ a w 5.Q.H.y.} f * Z t.!.R.m.'.}.).OX0XwX6X",
"S.;   < &.J.K.Q k.<XuXuX3X_.).).r.! s.#.] &.5.Q t X X 5 *                 & K :.{ z N u J K.(.C.g.{ 5 X , ) B.E.J.).J.~.].+X6X&X",
"Q.q   * X.S.R.n.y.(.wXpX0X).r.y.y.] @.] n c T j = o X > X                 X f X.>.P c H =._. XR.B...>   . 6 [ P.~.Y.N.N.C.G.*X&X",
"oXW q v >.T.OX4X4X;X1XtX0XE.` v H ] ! T u # & X o   # e &     X O o X @ O   = E w.s.C.6.8.).&X.XY.%.i .   + m P.[.!.Y.N.7.4._.2X",
"5XE.H.H.R.[.3XpXpXrX6XqXwX.X-.R ' ] U ^ k O           & w X X 5 h > 3 H K ; @ k :.H.#X}.K.<XqX*XU.t.P @   . i h.|.$X%X{.k.7._.7X",
"6X*X XG.s.E.0XsXdXpX7X;XqX1XM.t.P.~.c.XX'.n @         & O.8 O e k u t n.).~ = * T R.<XOX<XpXiX&XU.T.<.5 . @ V >.!.=X5X5X+X+X6X7X"
};
