/* XPM */
static char * north_xpm[] = {
"64 64 36 1",
" 	c #3E388A",
".	c #3B3584",
"+	c #353079",
"@	c #1D1947",
"#	c #191640",
"$	c #242157",
"%	c #27235C",
"&	c #050416",
"*	c #010003",
"=	c #0F0C2B",
"-	c #29245F",
";	c #38327E",
">	c #2B2664",
",	c #211D50",
"'	c #010108",
")	c #010105",
"!	c #161339",
"~	c #000000",
"{	c #03020F",
"]	c #0C0A27",
"^	c #040312",
"/	c #1B1844",
"(	c #120F32",
"_	c #0A0822",
":	c #1D1948",
"<	c #1B1843",
"[	c #0E0C2B",
"}	c #221F53",
"|	c #28245F",
"1	c #332D73",
"2	c #151237",
"3	c #0C0A26",
"4	c #18153E",
"5	c #060519",
"6	c #201C4E",
"7	c #2E296A",
"                                                                ",
"                                                                ",
"                                                                ",
"                                                                ",
"                                                                ",
"                                                                ",
"                                                                ",
"                                                                ",
"                                                                ",
"                                                                ",
"                                                                ",
"                                                                ",
"                                                                ",
"                                                                ",
"                                                                ",
"                                                                ",
"                                                                ",
"                                                                ",
"                                                                ",
"                                                                ",
"                                                                ",
"                                                                ",
"                                                                ",
"                                                                ",
" ________________                                               ",
"                     ...                                        ",
"                    +@#$                                        ",
"                    %&*=-;      >>>                             ",
"                    ,')'!-      @~@                             ",
"                    ,&{]^/>     (~(                             ",
"                    %__:<~@+    (~(                             ",
"                    %__%$[_$+   (~(                             ",
"                    %__%+}_[|   (~(                             ",
"                    %__% 12^<+  (~(                             ",
"                    %__% .}_3|  (~(                             ",
"                    %__%  12^<+ (~(                             ",
"                    %__%  .}_3| (~(                             ",
"                    %__%   12^<+(~(                             ",
"                    %__%   .$_3$(~(                             ",
"                    %__%    +@~4_~(                             ",
"                    %__%     >@~&~(                             ",
"                    %__%      >4~~[.                            ",
"                    %__%       $5)2.                            ",
"                    %__%       +6@$.                            ",
"                    7((7                                        ",
"                    +>>+                                        ",
"                                                                ",
"                                                                ",
"                                                                ",
"                                                                ",
"                                                                ",
"                                                                ",
"                                                                ",
"                                                                ",
"                                                                ",
"                                                                ",
"                                                                ",
"                                                                ",
"                                                                ",
"                                                                ",
"                                                                ",
"                                                                ",
"                                                                ",
"                                                                "};
