/* XPM */
static char * south_xpm[] = {
"64 64 59 1",
" 	c #306B78",
".	c #316F7C",
"+	c #33727F",
"@	c #347481",
"#	c #357583",
"$	c #357684",
"%	c #357785",
"&	c #367885",
"*	c #367886",
"=	c #326F7C",
"-	c #357683",
";	c #357784",
">	c #347482",
",	c #367785",
"'	c #337280",
")	c #306D7A",
"!	c #2E6874",
"~	c #295F6B",
"{	c #1D4750",
"]	c #14353C",
"^	c #0B2429",
"/	c #0F2A30",
"(	c #183D45",
"_	c #2E6975",
":	c #23525C",
"<	c #163A41",
"[	c #112F35",
"}	c #0C252B",
"|	c #081C21",
"1	c #000000",
"2	c #275B66",
"3	c #091F24",
"4	c #030F11",
"5	c #214E57",
"6	c #13333A",
"7	c #163840",
"8	c #193F47",
"9	c #0E292F",
"0	c #2C6470",
"a	c #1A4149",
"b	c #255762",
"c	c #255661",
"d	c #15373E",
"e	c #1F4B54",
"f	c #030E11",
"g	c #081D21",
"h	c #173C43",
"i	c #1C454E",
"j	c #215059",
"k	c #0D282D",
"l	c #06191D",
"m	c #071A1F",
"n	c #123238",
"o	c #295E69",
"p	c #1B434B",
"q	c #0A2227",
"r	c #173A42",
"s	c #275A64",
"t	c #194048",
" .+@#$%&********************************************************",
"=+@-;%&*********************************************************",
"+>-;%&**********************************************************",
">-;,&***********************************************************",
"-;,&************************************************************",
";,&*************************************************************",
",&**************************************************************",
"&***************************************************************",
"****************************************************************",
"****************************************************************",
"****************************************************************",
"****************************************************************",
"****************************************************************",
"****************************************************************",
"****************************************************************",
"************************************')!~{]^/(_******************",
"*********************************_:<[}}}|111/_******************",
"******************************_2{<341444|/^/(_******************",
"**444444444444444*******')!~5<[||4|}[678:_**********************",
"**********************_:<9}}|41||[{0'***************************",
"*******************_2a]|4444|}]ab0'*****************************",
"****************'05<3|1|967850'*********************************",
"****************cd|4||]{0'**************************************",
"****************e4fg9hijjjjjjjjjb~!)'***************************",
"****************:kl|m||||||||||||}}}////////////[<50'***********",
"****************_c(^|||||||||||||44411111111111114|}/(c*********",
"******************_2jjjjjjjjjjjj{876[////////////}|411(_********",
"************************************************'05n|f|2********",
"**************************************************opq|/2********",
"************************************************_e]4^(c_********",
"*********************************************'0{]|1[e_**********",
"******************************************'0{]}|1|r:'***********",
"****************************************_:<9|14|]e_*************",
"**************************************_:<344|[<:_***************",
"**********************************'0ba]|4|9<:_******************",
"*******************************'05<9||1|[{0'********************",
"****************************'05<9|44||]{0'**********************",
"**************************_:<9|44|9<{2_*************************",
"************************_e]|44|9<50'****************************",
"**********************_e]|1|9<50'*******************************",
"********************_e]|1|]{0'**********************************",
"*******************c(|1|]e_*************************************",
"*****************':r1|]e_***************************************",
"****************_e[1]e_*****************************************",
"**************'st34(c*******************************************",
"*************_e[43po********************************************",
"************op34[e_*********************************************",
"***********c(43ts'**********************************************",
"***********c1[e_************************************************",
"***********c::'*************************************************",
"****************************************************************",
"****************************************************************",
"****************************************************************",
"****************************************************************",
"****************************************************************",
"****************************************************************",
"****************************************************************",
"****************************************************************",
"****************************************************************",
"****************************************************************",
"****************************************************************",
"****************************************************************",
"****************************************************************",
"****************************************************************"};
