/* XPM */
static char * west_xpm[] = {
"64 64 106 2",
"  	c #F5C952",
". 	c #F5C852",
"+ 	c #F4C852",
"@ 	c #F3C751",
"# 	c #F1C651",
"$ 	c #EFC450",
"% 	c #EBC14E",
"& 	c #E7BD4C",
"* 	c #E3B94A",
"= 	c #F2C651",
"- 	c #F0C550",
"; 	c #EEC34F",
"> 	c #EAC04E",
", 	c #E6BC4C",
"' 	c #E2B94A",
") 	c #EDC24F",
"! 	c #E9BF4D",
"~ 	c #F3C752",
"{ 	c #ECC14E",
"] 	c #E9BE4D",
"^ 	c #E5BC4C",
"/ 	c #EBC04E",
"( 	c #E8BE4D",
"_ 	c #E3B94B",
": 	c #EFC350",
"< 	c #E4BB4B",
"[ 	c #F0C450",
"} 	c #EDC34F",
"| 	c #EABF4D",
"1 	c #F1C551",
"2 	c #F3C852",
"3 	c #F1C550",
"4 	c #F2C751",
"5 	c #C29F3F",
"6 	c #B3923A",
"7 	c #E9BF4E",
"8 	c #8E732C",
"9 	c #3B2F0D",
"0 	c #806827",
"a 	c #AC8C37",
"b 	c #5D4B1A",
"c 	c #292007",
"d 	c #8F742C",
"e 	c #C39F3F",
"f 	c #B4933A",
"g 	c #7D6626",
"h 	c #000000",
"i 	c #3C2F0D",
"j 	c #776023",
"k 	c #554517",
"l 	c #735D22",
"m 	c #D8B147",
"n 	c #A38534",
"o 	c #67531D",
"p 	c #9E8132",
"q 	c #443610",
"r 	c #836B28",
"s 	c #68541E",
"t 	c #705B21",
"u 	c #4A3B13",
"v 	c #8B712B",
"w 	c #BE9B3E",
"x 	c #7D6525",
"y 	c #CEA944",
"z 	c #967B2F",
"A 	c #B5943A",
"B 	c #AB8C37",
"C 	c #977B2F",
"D 	c #CEA943",
"E 	c #846C28",
"F 	c #886F2A",
"G 	c #BA983C",
"H 	c #3A2E0D",
"I 	c #534316",
"J 	c #40330F",
"K 	c #281F07",
"L 	c #261D06",
"M 	c #453711",
"N 	c #0B0701",
"O 	c #0F0B02",
"P 	c #826A28",
"Q 	c #A48534",
"R 	c #423510",
"S 	c #020100",
"T 	c #231B05",
"U 	c #9C7F31",
"V 	c #31260A",
"W 	c #0E0901",
"X 	c #90752D",
"Y 	c #2B2208",
"Z 	c #211905",
"` 	c #514116",
" .	c #8F752C",
"..	c #AD8D37",
"+.	c #4B3C13",
"@.	c #271E06",
"#.	c #9B7E31",
"$.	c #3D300E",
"%.	c #715C21",
"&.	c #100B02",
"*.	c #5A4919",
"=.	c #4F3F14",
"-.	c #1B1403",
";.	c #33280A",
">.	c #6B571F",
",.	c #E0B74A",
"                                                                                                                . + @ # $ % & * ",
"                                                                                                                + + = - ; > , ' ",
"                                                                                                              + + @ # $ ) ! , ' ",
"                                                                                                            . + ~ = - ; { ] ^ ' ",
"                                                                                                          . + + @ # $ ) / ( ^ _ ",
"                                                                                                        . + + @ = - : ) > ( , < ",
"                                                                                                      . + + @ = # [ ; { > ] & , ",
"                                                                                                    . + + ~ @ = - $ } { / | ! ] ",
"                                                                                                  . + + ~ @ = 1 [ $ ; ) { % % % ",
"                                                                                                . + + 2 @ = # 3 [ $ ; ; ) ) ; ; ",
"                                                                                              . + + + @ 4 = # 3 - [ $ $ $ $ [ - ",
"                                                                                            . + + + @ @ 4 = # # 3 3 3 3 3 # = = ",
"                                                                                          . + + + ~ @ @ 4 = = = = = = = 4 @ @ @ ",
"                                                                                        . + + + + @ @ @ @ @ @ @ @ @ @ ~ 2 + + + ",
"               eeeeeeeeeeeeeee                                                        . + + + + + 2 ~ @ @ ~ ~ 2 + + + + + + + . ",
"                                                                                      . + + + + + + + + + + + + + + + . .       ",
"                                                                                    . + + 5 6 6 7 + + + + + + . .               ",
"                                                                                      . 7 8 9 0 7 + . . .                       ",
"                                                                                        a b c d >                               ",
"                e f f >                                                               e g h g e                                 ",
"                e i j a                       > > >                                   d c k a                                   ",
"                e l h g m                     f n f                                 e o h g >                                   ",
"                  p q q p                     r i r                               m d c s a                                     ",
"                  m l h l m                   t h o >                           > p u u p >                                     ",
"                    v q q w                   x c k y           f f f           a s c d m                                       ",
"                    w q q v                   z q q A         e r h a         m g h l e                                         ",
"                    m l h l m                 w q q v         d c k a         B q q C                                           ",
"                      v q q w                 m o h l >     e o h g >       > x c b y                                           ",
"                      A q q z                   x c k y   m d c s a         y b c x >                                           ",
"                      y s c x m                 B q q C   p u q p >         C q q B                                             ",
"                      > C q u B                 m o h l D l h l m         > l h o m                                             ",
"                        y b c x >                 x c k E q q p           y k c x                                               ",
"                        > F c b G                 z q H I h l m           C q q B                                               ",
"                          G b c F >               A J K L u p           m l h l m                                               ",
"                          > x c b y               y M N O P m           B q q C                                                 ",
"                            Q q q Q               D R S T U           > x c b y                                                 ",
"                            y k c x               B V W L X >         y b c x >                                                 ",
"                            > l h o m           > x T Y Z s y         C q q B                                                   ",
"                              C q q B           G b c ` J q A       m l h l m                                                   ",
"                              y k c x         m F c s  .q q v       B q q C                                                     ",
"                              > l h o m       p u q p y l h l m     x c k y                                                     ",
"                                v q q w     e l h g m   p q q p   m o h l >                                                     ",
"                                w q q v   m d c s a     m l h l m B q q C                                                       ",
"                                m o h l > p u q p >       p q q C x c b y                                                       ",
"                                  t T u ..l h l m         m g h +.M @.d >                                                       ",
"                                  #.c $.%.u u p             a b &.h *.e                                                         ",
"                                  e r u =.c g m             > d -.-.g                                                           ",
"+ + + + . .                         m B ;.>.a                 e d d G                                                           ",
"+ + + + + + .                         e a a ,.                                                                                  ",
"2 + + + + + + .                                                                                                                 ",
"@ @ @ ~ + + + .                                                                                                                 ",
"= = 4 @ 2 + + .                                                                                                                 ",
"3 # = @ ~ + +                                                                                                                   ",
"[ 3 = @ ~ + +                                                                                                                   ",
"$ - # @ 2 + .                                                                                                                   ",
"; - # @ + +                                                                                                                     ",
"; - = @ + +                                                                                                                     ",
"; 3 = ~ + .                                                                                                                     ",
"$ # @ + +                                                                                                                       ",
"- = @ + .                                                                                                                       ",
"1 @ + +                                                                                                                         ",
"= @ + .                                                                                                                         ",
"@ + +                                                                                                                           ",
"+ +                                                                                                                             "};
